packages/icons/svg/Fill/person-done.svg

<svg width="24" height="24" viewBox="0 0 24 24" fill="none" xmlns="http://www.w3.org/2000/svg">
<g id="Icon/Fill/person-done">
<path id="Mask" fill-rule="evenodd" clip-rule="evenodd" d="M10 11C12.206 11 14 9.206 14 7C14 4.794 12.206 3 10 3C7.794 3 6 4.794 6 7C6 9.206 7.794 11 10 11ZM21.6563 4.2456C21.2393 3.8836 20.6083 3.9266 20.2453 4.3436L18.3793 6.4886L17.7453 5.7796C17.3783 5.3676 16.7463 5.3326 16.3333 5.7016C15.9223 6.0696 15.8863 6.7026 16.2553 7.1136L17.6443 8.6666C17.8343 8.8786 18.1053 8.9996 18.3893 8.9996H18.3963C18.6833 8.9976 18.9563 8.8726 19.1443 8.6566L21.7553 5.6566C22.1173 5.2396 22.0733 4.6076 21.6563 4.2456ZM17 20C17 20.552 16.553 21 16 21H4C3.447 21 3 20.552 3 20C3 16.14 6.141 13 10 13C13.859 13 17 16.14 17 20Z" fill="#000000"/>
</g>
</svg>

<svg fill="none" height="24" viewBox="0 0 24 24" width="24" xmlns="http://www.w3.org/2000/svg"><path clip-rule="evenodd" d="m10 11c2.206 0 4-1.794 4-4s-1.794-4-4-4-4 1.794-4 4 1.794 4 4 4zm11.6563-6.75447c-.417-.362-1.048-.319-1.411.098l-1.866 2.145-.634-.709c-.367-.412-.999-.447-1.412-.078-.411.368-.447 1.001-.078 1.412l1.389 1.553c.19.212.461.333.745.333h.007c.287-.002.56-.127.748-.343l2.611-3c.362-.417.318-1.049-.099-1.411zm-4.6563 15.75437c0 .552-.447 1-1 1h-12c-.553 0-1-.448-1-1 0-3.86 3.141-7 7-7s7 3.14 7 7z" fill="#6b7280" fill-rule="evenodd"/></svg>
